src/assets/img/technologies/springboot.svg

<svg width="24" height="24" viewBox="0 0 24 24" fill="none" xmlns="http://www.w3.org/2000/svg">
<g id="springboot " clip-path="url(#clip0)">
<path id="Vector" d="M23.6929 10.7058L18.9629 2.52137C18.5535 1.81077 17.5463 1.22717 16.7227 1.22717H7.27238C6.45338 1.22717 5.44158 1.81077 5.03218 2.52137L0.306881 10.7058C-0.102619 11.4164 -0.102619 12.5788 0.306881 13.2895L5.03208 21.4785C5.44148 22.1892 6.44868 22.7728 7.27228 22.7728H16.7273C17.5463 22.7728 18.5533 22.1892 18.9675 21.4786L23.6927 13.2896C24.1022 12.5789 24.1022 11.4164 23.6927 10.7058H23.6929ZM10.9762 5.75467C10.9762 5.21817 11.4139 4.78047 11.9504 4.78047C12.4869 4.78047 12.9246 5.21817 12.9246 5.75467V11.5764C12.9246 12.113 12.4869 12.5506 11.9504 12.5506C11.4139 12.5506 10.9762 12.113 10.9762 11.5764V5.75467ZM11.9504 18.1841C8.30768 18.1841 5.34268 15.2191 5.34268 11.5764C5.34738 9.48677 6.33568 7.52427 8.01118 6.27237C8.10254 6.20412 8.20649 6.15458 8.31705 6.12662C8.42762 6.09866 8.54261 6.09281 8.65544 6.10943C8.76827 6.12604 8.8767 6.16479 8.97451 6.22343C9.07232 6.28208 9.15757 6.35948 9.22538 6.45117C9.29365 6.54254 9.3432 6.64649 9.37117 6.75707C9.39914 6.86764 9.40499 6.98265 9.38838 7.09549C9.37176 7.20833 9.33301 7.31677 9.27435 7.41459C9.2157 7.5124 9.13829 7.59767 9.04658 7.66547C6.88638 9.27027 6.43458 12.3247 8.03938 14.4849C9.64428 16.6452 12.6987 17.0969 14.8589 15.4921C16.0967 14.5744 16.8262 13.1201 16.8262 11.5764C16.8241 10.8126 16.6435 10.0598 16.2986 9.37833C15.9538 8.69681 15.4543 8.1054 14.8401 7.65137C14.4541 7.36897 14.3741 6.82297 14.6565 6.43707C14.9389 6.05107 15.4848 5.97107 15.8708 6.25357C17.5603 7.50067 18.5534 9.47737 18.5581 11.5764C18.5581 15.2238 15.5931 18.1841 11.9504 18.1841V18.1841Z" fill="#6DB33F"/>
</g>
<defs>
<clipPath id="clip0">
<rect width="24" height="24" fill="white"/>
</clipPath>
</defs>
</svg>

<svg role="img" viewBox="0 0 24 24" xmlns="http://www.w3.org/2000/svg"><title>Spring Boot</title><path d="m23.693 10.7058-4.73-8.1844c-.4094-.7106-1.4166-1.2942-2.2402-1.2942H7.2725c-.819 0-1.8308.5836-2.2402 1.2942L.307 10.7058c-.4095.7106-.4095 1.873 0 2.5837l4.7252 8.189c.4094.7107 1.4166 1.2943 2.2402 1.2943h9.455c.819 0 1.826-.5836 2.2402-1.2942l4.7252-8.189c.4095-.7107.4095-1.8732 0-2.5838zM10.9763 5.7547c0-.5365.4377-.9742.9742-.9742s.9742.4377.9742.9742v5.8217c0 .5366-.4377.9742-.9742.9742s-.9742-.4376-.9742-.9742zm.9742 12.4294c-3.6427 0-6.6077-2.965-6.6077-6.6077.0047-2.0896.993-4.0521 2.6685-5.304a.8657.8657 0 0 1 1.2142.1788.8657.8657 0 0 1-.1788 1.2143c-2.1602 1.6048-2.612 4.6592-1.0072 6.8194 1.6049 2.1603 4.6593 2.612 6.8195 1.0072 1.2378-.9177 1.9673-2.372 1.9673-3.9157a4.8972 4.8972 0 0 0-1.9861-3.925c-.386-.2824-.466-.8284-.1836-1.2143.2824-.386.8283-.466 1.2143-.1835 1.6895 1.2471 2.6826 3.2238 2.6873 5.3228 0 3.6474-2.965 6.6077-6.6077 6.6077z" fill="#6DB33F"/></svg>
